X:19
M:3/2
L:1/8
Q:1/2=100
K:D
"6/4 in book"D2d4A2F2D2 | C2E4B,2C4 | D2d4A2F4 | D2F4A2G2E2 ||
feed dcBA GAFA | E2cd edcB cdec | d2f2 D2G2F2A2 | D2f2D2f2 cdec ||
d2f2D2G2F2A2 | e2fe fefe fedc | d2ed edcB AGFE | DEFG FGAF EFGE ||

